X:399
T: Two Mile Bridge
N: O'Farrell's Pocket Companion v.4 (Sky ed. p.171)
M: 6/8
L: 1/8
R: jig
Q: 320
K: Em
z| G2E EFE| G2A BAG| F2D DED| FDF AGF|
G2E EGE| G2A B2d| gfe afd| efe e2 :|
P:2
f| g2e efe| g2a bag| f2d ded| fdf agf|
gfg aga| bag faf| gfe def| efe e2 :|
P:3
f| g2e f2d| edB d3| F2D DED| FDF AGF|
GFG AGA| BcB e2f| gfe def| efe e2 :|
